wp-content/themes/fundawande/assets/question_icon.svg

<?xml version="1.0" encoding="UTF-8"?>
<svg width="27px" height="27px" viewBox="0 0 27 27" version="1.1" xmlns="http://www.w3.org/2000/svg" xmlns:xlink="http://www.w3.org/1999/xlink">
    <!-- Generator: sketchtool 51.2 (57519) - http://www.bohemiancoding.com/sketch -->
    <title>64188E87-69C8-4BCD-9802-1AE86B99BE91-10156-0000014EA97FD614</title>
    <desc>Created with sketchtool.</desc>
    <defs>
        <path d="M13.5,27 C6.04415588,27 0,20.9558441 0,13.5 C0,6.04415588 6.04415588,0 13.5,0 C20.9558441,0 27,6.04415588 27,13.5 C27,20.9558441 20.9558441,27 13.5,27 Z M13.5,21.6 C14.3947013,21.6 15.12,20.8747013 15.12,19.98 C15.12,19.0852987 14.3947013,18.36 13.5,18.36 C12.6052987,18.36 11.88,19.0852987 11.88,19.98 C11.88,20.8747013 12.6052987,21.6 13.5,21.6 Z M14.3071883,5.47302336 C12.9936298,5.23351898 11.641542,5.58970813 10.6164699,6.44529299 C9.59139774,7.30087784 8.99920733,8.56749637 9.0000008,9.90271086 C9.0000008,10.5240312 9.50368045,11.0277109 10.1250008,11.0277109 C10.7463211,11.0277109 11.2500008,10.5240312 11.2500008,9.90271086 C11.249323,9.23268753 11.5472926,8.59722079 12.0628204,8.16924564 C12.5783483,7.74127049 13.2577928,7.56531863 13.9162508,7.68927336 C14.8252517,7.86673285 15.5359788,8.57745999 15.7134383,9.48646086 C15.8937353,10.4418649 15.43996,11.405003 14.5884383,11.8742734 C13.2254091,12.582275 12.3714633,13.9917739 12.3750008,15.5277109 C12.3770879,15.8211235 12.4978552,16.1011966 12.7097893,16.3041234 C12.9217233,16.5070503 13.206774,16.615548 13.5000008,16.6048984 C14.1307217,16.5806316 14.628502,16.0604512 14.6250008,15.4292734 C14.6540019,14.7479657 15.0547826,14.1376125 15.6684383,13.8402109 C17.3390924,12.9235102 18.2512024,11.0538941 17.9454006,9.17296071 C17.6395989,7.29202733 16.1821967,5.80764595 14.3071883,5.46739836 L14.3071883,5.47302336 Z" id="path-1"></path>
    </defs>
    <g id="2.-Modules" stroke="none" stroke-width="1" fill="none" fill-rule="evenodd">
        <g id="Modules---Landing-[FW2COURSE001---Tablet]" transform="translate(-195.000000, -18.000000)">
            <g id="Navbar-/-Tablet-/-Yellow">
                <g id="Header-Copy-8">
                    <g id="View-Tooltips" transform="translate(195.000000, 18.000000)">
                        <g id="question1">
                            <g id="Group">
                                <mask id="mask-2" fill="white">
                                    <use xlink:href="#path-1"></use>
                                </mask>
                                <use id="Combined-Shape" fill="#FFFFFF" xlink:href="#path-1"></use>
                            </g>
                        </g>
                    </g>
                </g>
            </g>
        </g>
    </g>
</svg>

<svg width="27" height="27" viewBox="0 0 27 27" xmlns="http://www.w3.org/2000/svg" xmlns:xlink="http://www.w3.org/1999/xlink"><title>64188E87-69C8-4BCD-9802-1AE86B99BE91-10156-0000014EA97FD614</title><desc>Created with sketchtool.</desc><defs><path d="M13.5 27c-7.456 0-13.5-6.044-13.5-13.5s6.044-13.5 13.5-13.5 13.5 6.044 13.5 13.5-6.044 13.5-13.5 13.5zm0-5.4c.895 0 1.62-.725 1.62-1.62 0-.895-.725-1.62-1.62-1.62-.895 0-1.62.725-1.62 1.62 0 .895.725 1.62 1.62 1.62zm.807-16.127c-1.314-.24-2.666.117-3.691.972-1.025.856-1.617 2.122-1.616 3.457 0 .621.504 1.125 1.125 1.125s1.125-.504 1.125-1.125c-.001-.67.297-1.305.813-1.733.516-.428 1.195-.604 1.853-.48.909.177 1.62.888 1.797 1.797.18.955-.273 1.919-1.125 2.388-1.363.708-2.217 2.118-2.213 3.653.002.293.123.573.335.776.212.203.497.311.79.301.631-.024 1.129-.544 1.125-1.176.029-.681.43-1.292 1.043-1.589 1.671-.917 2.583-2.786 2.277-4.667-.306-1.881-1.763-3.365-3.638-3.706v.006z" id="a"/></defs><g transform="translate(-195 -18) translate(195 18)" fill="none"><mask><use xlink:href="#a"/></mask><use fill="#fff" xlink:href="#a"/></g></svg>
